icon/pk/chair.svg

<svg viewBox="0 0 48 48" fill="none" xmlns="http://www.w3.org/2000/svg" height="1em" width="1em">
  <path d="M20 23L12 44" stroke="black" stroke-width="4" stroke-linecap="round" stroke-linejoin="round"/>
  <path d="M28 23L36 44" stroke="black" stroke-width="4" stroke-linecap="round" stroke-linejoin="round"/>
  <path d="M16 34L32 34" stroke="black" stroke-width="4" stroke-linecap="round" stroke-linejoin="round"/>
  <path d="M29.4545 23H18.5455C15.8182 23 14 21.3333 14 18.8333V12H18V6C18 4.89543 18.8954 4 20 4H28C29.1046 4 30 4.89543 30 6V12H34V18.8333C34 21.3333 32.1818 23 29.4545 23Z" fill="#2F88FF" stroke="black" stroke-width="4" stroke-linecap="round" stroke-linejoin="round"/>
  <path d="M30 12H38" stroke="black" stroke-width="4" stroke-linecap="round" stroke-linejoin="round"/>
  <path d="M18 12H10" stroke="black" stroke-width="4" stroke-linecap="round" stroke-linejoin="round"/>
</svg>

<svg width="48" height="48" fill="none" xmlns="http://www.w3.org/2000/svg"><path d="m20 23-8 21M28 23l8 21M16 34h16" stroke="#000" stroke-width="4" stroke-linecap="round" stroke-linejoin="round"/><path d="M29.454 23H18.545C15.819 23 14 21.333 14 18.833V12h4V6a2 2 0 0 1 2-2h8a2 2 0 0 1 2 2v6h4v6.833c0 2.5-1.818 4.167-4.546 4.167Z" fill="#2F88FF" stroke="#000" stroke-width="4" stroke-linecap="round" stroke-linejoin="round"/><path d="M30 12h8M18 12h-8" stroke="#000" stroke-width="4" stroke-linecap="round" stroke-linejoin="round"/></svg>
